packages/astro-components-stencil/src/icons/memory.svg

<svg xmlns="http://www.w3.org/2000/svg" viewBox="0 0 24 24"><g xmlns="http://www.w3.org/2000/svg" id="memory" fill-rule="nonzero">
            <path d="M14 9h-4c-.55 0-1 .45-1 1v4c0 .55.45 1 1 1h4c.55 0 1-.45 1-1v-4c0-.55-.45-1-1-1zm-1 4h-2v-2h2v2zm8-3c0-.55-.45-1-1-1h-1V7c0-1.1-.9-2-2-2h-2V4c0-.55-.45-1-1-1s-1 .45-1 1v1h-2V4c0-.55-.45-1-1-1s-1 .45-1 1v1H7c-1.1 0-2 .9-2 2v2H4c-.55 0-1 .45-1 1s.45 1 1 1h1v2H4c-.55 0-1 .45-1 1s.45 1 1 1h1v2c0 1.1.9 2 2 2h2v1c0 .55.45 1 1 1s1-.45 1-1v-1h2v1c0 .55.45 1 1 1s1-.45 1-1v-1h2c1.1 0 2-.9 2-2v-2h1c.55 0 1-.45 1-1s-.45-1-1-1h-1v-2h1c.55 0 1-.45 1-1zm-5 7H8c-.55 0-1-.45-1-1V8c0-.55.45-1 1-1h8c.55 0 1 .45 1 1v8c0 .55-.45 1-1 1z"/>
        </g></svg>

<svg width="24" height="24" viewBox="0 0 24 24" fill="none" xmlns="http://www.w3.org/2000/svg">
<path fill-rule="evenodd" clip-rule="evenodd" d="M21 10C21 9.45 20.55 9 20 9H19V7C19 5.9 18.1 5 17 5H15V4C15 3.45 14.55 3 14 3C13.45 3 13 3.45 13 4V5H11V4C11 3.45 10.55 3 10 3C9.45 3 9 3.45 9 4V5H7C5.9 5 5 5.9 5 7V9H4C3.45 9 3 9.45 3 10C3 10.55 3.45 11 4 11H5V13H4C3.45 13 3 13.45 3 14C3 14.55 3.45 15 4 15H5V17C5 18.1 5.9 19 7 19H9V20C9 20.55 9.45 21 10 21C10.55 21 11 20.55 11 20V19H13V20C13 20.55 13.45 21 14 21C14.55 21 15 20.55 15 20V19H17C18.1 19 19 18.1 19 17V15H20C20.55 15 21 14.55 21 14C21 13.45 20.55 13 20 13H19V11H20C20.55 11 21 10.55 21 10ZM10 9H14C14.55 9 15 9.45 15 10V14C15 14.55 14.55 15 14 15H10C9.45 15 9 14.55 9 14V10C9 9.45 9.45 9 10 9ZM11 13H13V11H11V13ZM8 17H16C16.55 17 17 16.55 17 16V8C17 7.45 16.55 7 16 7H8C7.45 7 7 7.45 7 8V16C7 16.55 7.45 17 8 17Z" fill="black"/>
</svg>
